X: 18845
T: In And Out
R: jig
M: 6/8
K: Dmajor
|:DFA dAc|Adc AGF|GFD ADB-|BAF E2D|
DFA dAf-|faf edc|a3- agf|gfe fed|
DFA dzc|zdc AGF|GFD ADB-|BAF E2D|
DFA dAB,|zED EFA|cdd cAF|BAF E2D||
|:f3 fga|e2e- ecA|f3 gfd|gfd ecA|
f3 fga|e2e- ecA|a3 gfd|gfd B2A:|

